!!!OTL: Haocaoge, Da fenghuangji
!!!ARE: Asia, China,ÿGansu, Kangxian
!! I, 140
!!!SCT: C1423
!!!YEM: Copyright 1995, estate of Helmut Schaffrath.
**kern
*ICvox
*Ivox
*M2/4
*k[b-]
*F:
{8.gg
16gg
8dd
16dd
16ff
=1
16gg
[8.gg
8gg]
8ff
=2
16dd
8dd
16ff
8gg
8ff
=3
4dd
4r}
=4
{16cc
8cc
16dd
8gg
16gg
16ff
=5
16dd
8dd
16ff
8gg
8ff
=6
16ff
8.dd
4cc}
==
!!!AGN: Shange, Tiange. Nongtian laodong chang
!!!ONB: ESAC (Essen Associative Code) Database: HUANG
!!!AMT: simple duple
!!!AIN: vox
!!!EED: Helmut Schaffrath
!!!EEV: 1.0
*-
!!!OTL: Dahe changshui xiaohe qing
!!!ARE: Asia, China,ÿYunnan
!! II, 56
!!!SCT: C1486
!!!YEM: Copyright 1995, estate of Helmut Schaffrath.
**kern
*ICvox
*Ivox
!! Mixed meters:  3/4; 2/4
*M2/4
*k[f#]
*G:
{8b
16b
16e
8b
4.dd
=1
16ee
16b
8dd
8a
16b
16g
=2
8e
8d
4g}
=3
{8g
16e
16g
8a
16b
16e
=4
2d
=5
8g
8b
8a
24g
24e
24g
=6
8e
8d
4d}
==
!!!AGN: Xiaodiao
!!!AMT: irregular
!!!AIN: vox
!!!EED: Helmut Schaffrath
!!!EEV: 1.0
*-
